dist/images/9GAG.svg

<?xml version="1.0" encoding="UTF-8"?>
<!DOCTYPE svg  PUBLIC '-//W3C//DTD SVG 1.1//EN'  'http://www.w3.org/Graphics/SVG/1.1/DTD/svg11.dtd'>
<svg width="256pt" height="256pt" version="1.1" viewBox="0 0 256 256" xmlns="http://www.w3.org/2000/svg">
 <g id="#000000ff">
  <path d="m0 0h256v256h-256v-256m59.99 88.74c0.02 5.32 0.01 10.65 0.01 15.98 22.69 12.93 45.31 25.97 68 38.88 13.67-7.89 27.34-15.79 40.99-23.71 0.05 10.45-0.06 20.89 0.06 31.34-13.59 8.09-27.41 15.79-41.05 23.8-13.67-7.95-27.41-15.8-41.11-23.7-9.06 5.12-18.09 10.28-27.13 15.43 22.66 13.23 45.51 26.14 68.24 39.26 22.67-13.01 45.4-25.9 68.03-38.99-0.05-26.11-0.04-52.22-0.01-78.33-22.64-13.07-45.34-26.05-68.01-39.07-22.68 13.01-45.35 26.05-68.02 39.11z"/>
  <path d="m100.27 96.58c9.27-5.26 18.48-10.64 27.73-15.94 9.3 5.31 18.57 10.68 27.88 15.97-9.31 5.32-18.59 10.66-27.88 15.99-9.23-5.36-18.53-10.62-27.73-16.02z"/>
 </g>
 <g id="#ffffffff">
  <path d="m59.99 88.74c22.67-13.06 45.34-26.1 68.02-39.11 22.67 13.02 45.37 26 68.01 39.07-0.03 26.11-0.04 52.22 0.01 78.33-22.63 13.09-45.36 25.98-68.03 38.99-22.73-13.12-45.58-26.03-68.24-39.26 9.04-5.15 18.07-10.31 27.13-15.43 13.7 7.9 27.44 15.75 41.11 23.7 13.64-8.01 27.46-15.71 41.05-23.8-0.12-10.45-0.01-20.89-0.06-31.34-13.65 7.92-27.32 15.82-40.99 23.71-22.69-12.91-45.31-25.95-68-38.88 0-5.33 0.01-10.66-0.01-15.98m40.28 7.84c9.2 5.4 18.5 10.66 27.73 16.02 9.29-5.33 18.57-10.67 27.88-15.99-9.31-5.29-18.58-10.66-27.88-15.97-9.25 5.3-18.46 10.68-27.73 15.94z" fill="#fff"/>
 </g>
</svg>

<?xml version="1.0" encoding="UTF-8" ?>
<!DOCTYPE svg PUBLIC "-//W3C//DTD SVG 1.1//EN" "http://www.w3.org/Graphics/SVG/1.1/DTD/svg11.dtd">
<svg width="256pt" height="256pt" viewBox="0 0 256 256" version="1.1" xmlns="http://www.w3.org/2000/svg">
<g id="#000000ff">
<path fill="#000000" opacity="1.00" d=" M 0.00 0.00 L 256.00 0.00 L 256.00 256.00 L 0.00 256.00 L 0.00 0.00 M 59.99 88.74 C 60.01 94.06 60.00 99.39 60.00 104.72 C 82.69 117.65 105.31 130.69 128.00 143.60 C 141.67 135.71 155.34 127.81 168.99 119.89 C 169.04 130.34 168.93 140.78 169.05 151.23 C 155.46 159.32 141.64 167.02 128.00 175.03 C 114.33 167.08 100.59 159.23 86.89 151.33 C 77.83 156.45 68.80 161.61 59.76 166.76 C 82.42 179.99 105.27 192.90 128.00 206.02 C 150.67 193.01 173.40 180.12 196.03 167.03 C 195.98 140.92 195.99 114.81 196.02 88.70 C 173.38 75.63 150.68 62.65 128.01 49.63 C 105.33 62.64 82.66 75.68 59.99 88.74 Z" />
<path fill="#000000" opacity="1.00" d=" M 100.27 96.58 C 109.54 91.32 118.75 85.94 128.00 80.64 C 137.30 85.95 146.57 91.32 155.88 96.61 C 146.57 101.93 137.29 107.27 128.00 112.60 C 118.77 107.24 109.47 101.98 100.27 96.58 Z" />
</g>
<g id="#ffffffff">
<path fill="#ffffff" opacity="1.00" d=" M 59.99 88.74 C 82.66 75.68 105.33 62.64 128.01 49.63 C 150.68 62.65 173.38 75.63 196.02 88.70 C 195.99 114.81 195.98 140.92 196.03 167.03 C 173.40 180.12 150.67 193.01 128.00 206.02 C 105.27 192.90 82.42 179.99 59.76 166.76 C 68.80 161.61 77.83 156.45 86.89 151.33 C 100.59 159.23 114.33 167.08 128.00 175.03 C 141.64 167.02 155.46 159.32 169.05 151.23 C 168.93 140.78 169.04 130.34 168.99 119.89 C 155.34 127.81 141.67 135.71 128.00 143.60 C 105.31 130.69 82.69 117.65 60.00 104.72 C 60.00 99.39 60.01 94.06 59.99 88.74 M 100.27 96.58 C 109.47 101.98 118.77 107.24 128.00 112.60 C 137.29 107.27 146.57 101.93 155.88 96.61 C 146.57 91.32 137.30 85.95 128.00 80.64 C 118.75 85.94 109.54 91.32 100.27 96.58 Z" />
</g>
</svg>
